icons/mobile/16/svg/email-mask-16.svg

<svg width="16" height="16" viewBox="0 0 16 16" fill="none" xmlns="http://www.w3.org/2000/svg">
<path fill-rule="evenodd" clip-rule="evenodd" d="M12.5195 9.0488C12.863 9.11945 13.0719 9.73712 13.1855 10.0058C13.4063 10.5279 13.592 11.0518 13.6992 11.6054C13.7733 11.9874 13.9716 12.2683 14.3594 12.2685L14.3623 12.2695C14.4606 12.2708 14.5286 12.3737 14.4941 12.4658C14.411 12.6877 14.1555 12.8291 13.9424 12.9111C14.0395 12.9362 14.3251 12.8793 14.3369 13.0215C14.3459 13.1388 14.0482 13.2568 13.9678 13.2959C13.2158 13.658 12.5237 14.3071 11.6338 14.1924C11.247 14.1419 10.965 13.8692 10.6484 13.7002C10.4991 13.6207 10.3173 13.6207 10.168 13.7002C9.85141 13.8692 9.56932 14.1418 9.18262 14.1924C8.29285 14.3071 7.6005 13.658 6.84863 13.2959C6.76819 13.258 6.46928 13.1388 6.47949 13.0215C6.49261 12.878 6.77832 12.9363 6.87402 12.9111C6.66092 12.8292 6.40541 12.6876 6.32227 12.4658C6.28779 12.3737 6.35451 12.2695 6.4541 12.2695C6.84325 12.2681 7.04022 11.9885 7.11426 11.6064C7.22149 11.0515 7.4071 10.529 7.62793 10.0068C7.74157 9.73936 7.95048 9.1214 8.29395 9.05076C8.68452 8.97016 9.03042 9.17915 9.47461 10.0732C9.83549 10.7975 10.0815 11.3079 10.0889 11.3232V11.3291L10.3408 11.3261L10.3467 11.3252H10.4736L10.7246 11.3271V11.3222C10.7287 11.3138 10.9755 10.8029 11.3389 10.0722C11.7843 9.17938 12.129 8.9683 12.5195 9.0488ZM9.88672 12.9394C9.70521 12.3581 8.9611 12.1391 8.39941 12.2324C8.30477 12.2476 8.04442 12.3393 8.05566 12.459C8.30847 13.0847 9.37086 13.4099 9.88672 12.9394ZM12.4131 12.2324C11.8516 12.1391 11.1067 12.3577 10.9248 12.9385C11.4406 13.4103 12.5018 13.0847 12.7559 12.459C12.7672 12.3394 12.508 12.2478 12.4131 12.2324Z" fill="black"/>
<path fill-rule="evenodd" clip-rule="evenodd" d="M6.2373 4.00095C7.26114 3.99996 8.28597 4.03593 9.2998 4.1279C10.2688 4.2169 10.999 5.02102 10.999 5.99802V8.68845C10.7743 8.9507 10.5856 9.26937 10.415 9.6113L10.4141 9.61228C10.4118 9.61691 10.4086 9.62135 10.4062 9.62595C10.4041 9.62161 10.4016 9.61664 10.3994 9.61228C10.2128 9.23686 10.0036 8.8903 9.74902 8.61521V6.37595L7.69531 8.07224C7.34831 8.35824 6.923 8.49997 6.5 8.49997C6.076 8.49997 5.65164 8.35724 5.30664 8.07224L3.25 6.374V9.00486C3.25 9.33082 3.50196 9.59981 3.83691 9.62986C4.75799 9.71388 5.69003 9.74681 6.62109 9.74119C6.45851 10.1366 6.31079 10.5537 6.19727 10.997C5.3732 10.9889 4.54227 10.9499 3.72363 10.876C2.74082 10.7868 2 9.98273 2 9.00486V5.99802C2 5.02002 2.7321 4.21593 3.7041 4.12693C4.53807 4.05093 5.39034 4.00795 6.2373 4.00095ZM6.24902 5.25095C5.4922 5.2584 4.73114 5.29482 3.9834 5.35935L6.10156 7.10837C6.33356 7.29837 6.66641 7.29837 6.89941 7.10837L9.01465 5.36033C8.18021 5.28849 7.33569 5.25095 6.49805 5.25095H6.24902Z" fill="black"/>
</svg>

<!-- This Source Code Form is subject to the terms of the Mozilla Public
   - License, v. 2.0. If a copy of the MPL was not distributed with this
   - file, You can obtain one at http://mozilla.org/MPL/2.0/. -->
<svg xmlns="http://www.w3.org/2000/svg" width="16" height="16" fill="none" viewBox="0 0 16 16">
    <path fill="#000" fill-rule="evenodd" d="M12.52 9.049c.343.07.552.688.665.957a8 8 0 0 1 .514 1.6c.074.381.273.662.66.662l.003.002a.146.146 0 0 1 .132.196c-.083.222-.338.363-.552.445.098.025.383-.032.395.11.009.118-.289.236-.37.275-.751.362-1.443 1.011-2.333.896-.387-.05-.669-.323-.986-.492a.51.51 0 0 0-.48 0c-.317.17-.599.442-.985.492-.89.115-1.582-.534-2.334-.896-.08-.038-.38-.157-.37-.274.014-.144.3-.086.395-.11-.213-.083-.469-.224-.552-.446-.034-.092.033-.196.132-.196.39-.002.586-.281.66-.664.107-.554.293-1.077.514-1.6.114-.267.322-.885.666-.955.39-.08.736.128 1.18 1.022.361.724.607 1.235.615 1.25v.006l.252-.003h.133l.25.001v-.005c.005-.008.252-.52.615-1.25.445-.893.79-1.104 1.18-1.023m-2.633 3.89c-.182-.58-.926-.8-1.488-.707-.094.016-.355.107-.343.227.252.626 1.315.95 1.83.48m2.526-.707c-.561-.093-1.306.126-1.488.707.516.471 1.577.146 1.83-.48.012-.12-.247-.211-.342-.227" clip-rule="evenodd" />
    <path fill="#000" fill-rule="evenodd" d="M6.237 4a34 34 0 0 1 3.063.128 1.865 1.865 0 0 1 1.699 1.87v2.69a4.5 4.5 0 0 0-.584.923v.001l-.009.014-.007-.014c-.186-.375-.395-.722-.65-.997v-2.24L7.695 8.073a1.88 1.88 0 0 1-2.388 0L3.25 6.374v2.63c0 .327.252.596.587.626.921.084 1.853.117 2.784.111a10 10 0 0 0-.424 1.256 31 31 0 0 1-2.473-.121A1.877 1.877 0 0 1 2 9.005V5.998c0-.978.732-1.782 1.704-1.871A31 31 0 0 1 6.237 4m.012 1.25c-.757.008-1.518.045-2.266.11l2.119 1.748a.63.63 0 0 0 .797 0L9.015 5.36a29 29 0 0 0-2.517-.11z" clip-rule="evenodd" />
</svg>
